domfk/img/social/whatssap.svg

<svg width="35" height="35" viewBox="0 0 35 35" fill="none" xmlns="http://www.w3.org/2000/svg">
<path d="M18.1932 27.9998C22.8224 27.9998 21.1718 25.0691 21.5291 24.2265C21.5238 23.5972 21.5185 22.9918 21.5398 22.6238C21.8331 22.7065 22.5251 23.0572 23.9544 24.4465C26.1611 26.6731 26.7251 27.9998 28.5077 27.9998H31.789C32.829 27.9998 33.3703 27.5691 33.641 27.2078C33.9023 26.8585 34.1583 26.2451 33.8783 25.2905C33.1463 22.9918 28.877 19.0225 28.6117 18.6039C28.6517 18.5266 28.7157 18.4239 28.749 18.3706H28.7464C29.589 17.2572 32.805 12.4386 33.2783 10.5106C33.2797 10.508 33.281 10.504 33.281 10.5C33.537 9.61998 33.3023 9.04932 33.0597 8.72666C32.6943 8.244 32.113 8 31.3277 8H28.0464C26.9477 8 26.1144 8.55333 25.6931 9.56265C24.9877 11.356 23.0064 15.0439 21.5211 16.3492C21.4758 14.4999 21.5065 13.0879 21.5305 12.0386C21.5785 9.99198 21.7331 8 19.6091 8H14.4519C13.1212 8 11.8479 9.45332 13.2265 11.1786C14.4319 12.6906 13.6599 13.5333 13.9199 17.7279C12.9065 16.6412 11.1039 13.7066 9.82925 9.95598C9.47192 8.94132 8.93059 8.00133 7.40661 8.00133H4.12531C2.79466 8.00133 2 8.72666 2 9.94131C2 12.6693 8.0386 27.9998 18.1932 27.9998ZM7.40661 10.0013C7.69594 10.0013 7.72527 10.0013 7.93993 10.6106C9.24525 14.4546 12.1732 20.1425 14.3119 20.1425C15.9185 20.1425 15.9185 18.4959 15.9185 17.8759L15.9172 12.9399C15.8292 11.3066 15.2345 10.4933 14.8439 9.99998L19.5211 10.0053C19.5238 10.028 19.4945 15.4653 19.5345 16.7826C19.5345 18.6532 21.0198 19.7252 23.3384 17.3786C25.7851 14.6173 27.4771 10.4893 27.5451 10.3213C27.6451 10.0813 27.7317 9.99998 28.0464 9.99998H31.3277H31.341C31.3397 10.004 31.3397 10.008 31.3383 10.012C31.0383 11.412 28.077 15.8732 27.0864 17.2586C27.0704 17.2799 27.0557 17.3026 27.0411 17.3252C26.6051 18.0372 26.2504 18.8239 27.1011 19.9305H27.1024C27.1797 20.0239 27.3811 20.2425 27.6744 20.5465C28.5864 21.4879 31.7143 24.7065 31.9917 25.9865C31.8077 26.0158 31.6077 25.9945 28.5077 26.0011C27.8477 26.0011 27.3317 25.0145 25.3624 23.0278C23.5918 21.3052 22.4424 20.6012 21.3958 20.6012C19.3638 20.6012 19.5118 22.2505 19.5305 24.2452C19.5371 26.4078 19.5238 25.7238 19.5385 25.8598C19.4198 25.9065 19.0798 25.9998 18.1932 25.9998C9.73325 25.9998 4.22398 12.5719 4.01198 10.0053C4.08531 9.99864 5.09463 10.0026 7.40661 10.0013Z" fill="#FFC844"/>
</svg>

<svg width="35" height="35" fill="none" xmlns="http://www.w3.org/2000/svg"><path d="M18.193 28c4.63 0 2.979-2.93 3.336-3.773-.005-.63-.01-1.235.01-1.603.294.082.986.433 2.415 1.823C26.161 26.672 26.725 28 28.508 28h3.281c1.04 0 1.581-.43 1.852-.792.261-.35.517-.963.237-1.917-.732-2.3-5.001-6.268-5.266-6.687.04-.077.104-.18.137-.233h-.003c.843-1.114 4.059-5.932 4.532-7.86a.024.024 0 00.003-.011c.256-.88.021-1.45-.221-1.773-.366-.483-.947-.727-1.732-.727h-3.282c-1.098 0-1.932.553-2.353 1.563-.705 1.793-2.687 5.48-4.172 6.786a85.507 85.507 0 01.01-4.31C21.578 9.992 21.733 8 19.608 8h-5.157c-1.33 0-2.604 1.453-1.226 3.179 1.206 1.512.434 2.354.694 6.549-1.014-1.087-2.816-4.021-4.09-7.772-.358-1.015-.9-1.955-2.423-1.955H4.125C2.795 8.001 2 8.727 2 9.941 2 12.67 8.039 28 18.193 28zM7.407 10c.289 0 .318 0 .533.61 1.305 3.844 4.233 9.531 6.372 9.531 1.607 0 1.607-1.646 1.607-2.266l-.002-4.936c-.088-1.633-.682-2.447-1.073-2.94l4.677.005c.003.023-.027 5.46.014 6.778 0 1.87 1.485 2.942 3.803.596 2.447-2.762 4.14-6.89 4.207-7.058.1-.24.187-.321.501-.321h3.295l-.003.012c-.3 1.4-3.261 5.861-4.252 7.247-.016.02-.03.044-.045.066-.436.712-.79 1.499.06 2.605h.001c.078.094.28.313.572.617.912.94 4.04 4.16 4.318 5.44-.184.029-.384.008-3.484.014-.66 0-1.176-.986-3.146-2.973-1.77-1.723-2.92-2.427-3.966-2.427-2.032 0-1.884 1.65-1.866 3.644.007 2.163-.006 1.479.008 1.615-.118.047-.458.14-1.345.14-8.46 0-13.969-13.428-14.181-15.995.073-.006 1.083-.002 3.395-.004z" fill="#FFC844"/></svg>
